release/img/phone_white.svg

<svg width="62" height="66" viewBox="0 0 62 66" fill="none" xmlns="http://www.w3.org/2000/svg">
<path d="M55.8599 45.3153L47.1064 44.266C45.0041 44.0127 42.9364 44.7726 41.4545 46.3285L35.1133 52.9863C25.3604 47.7758 17.365 39.4173 12.4024 29.141L18.778 22.4469C20.2599 20.891 20.9836 18.72 20.7424 16.5127L19.7429 7.39434C19.3294 3.73974 16.4 0.989746 12.8848 0.989746H6.92279C3.0285 0.989746 -0.211001 4.39105 0.0302379 8.47986C1.85676 39.3811 25.3948 64.0587 54.7916 65.9765C58.6858 66.2297 61.9253 62.8284 61.9253 58.7396V52.4798C61.9598 48.8252 59.3406 45.7495 55.8599 45.3153Z" fill="white"/>
</svg>

<svg width="62" height="66" fill="none" xmlns="http://www.w3.org/2000/svg"><path d="M55.86 45.315l-8.754-1.049c-2.102-.253-4.17.507-5.651 2.063l-6.342 6.657c-9.753-5.21-17.748-13.569-22.71-23.845l6.375-6.694c1.482-1.556 2.206-3.727 1.964-5.934l-1-9.119C19.33 3.74 16.4.99 12.886.99H6.923C3.029.99-.211 4.39.03 8.48c1.827 30.9 25.365 55.579 54.762 57.496 3.894.254 7.133-3.148 7.133-7.236v-6.26c.035-3.655-2.584-6.73-6.065-7.165z" fill="#fff"/></svg>
